frontend/public/svg/health/microscope.svg

<svg width="131" height="161" viewBox="0 0 131 161" fill="none" xmlns="http://www.w3.org/2000/svg">
<g clip-path="url(#clip0)">
<path d="M41.9468 112.368C42.8879 114.323 44.2575 116.042 45.954 117.395C47.6506 118.748 49.6304 119.701 51.746 120.184C64.4029 123.375 76.4033 121.646 86.6999 113.362C95.2599 106.475 98.0703 96.6364 98.0979 86.0392C98.0375 79.1824 96.4432 72.4267 93.4306 66.267C87.0412 67.0743 86.2109 66.9082 81.4938 63.9424C71.7767 70.6625 62.0885 77.3624 52.429 84.0413C52.0594 84.2966 51.6794 84.5375 51.2935 84.7633C47.2137 87.1766 45.378 86.8478 42.2644 82.9911C38.4353 85.627 34.6037 88.2983 30.7313 90.9099C29.3648 91.8878 27.9138 92.7417 26.3956 93.4617C23.9114 94.5519 21.983 93.9736 20.6289 91.6627C18.8732 88.6658 17.3438 85.5377 15.6866 82.4825C14.7198 80.6992 15.0579 79.2841 16.7092 78.1178C21.8334 74.4968 26.9454 70.8712 32.0447 67.2403C32.0527 67.1137 32.0388 66.987 32.0033 66.8649C28.3035 60.4564 29.3169 60.5977 33.9493 56.5717C46.0122 45.9753 58.6567 36.0599 71.824 26.8718C77.0865 23.2396 82.1377 19.3001 87.2893 15.5065C91.0704 12.7216 92.2394 12.8005 95.6596 16.0231C95.9792 16.3244 96.3389 16.5823 96.7163 16.8895C103.304 12.0982 109.876 7.39894 116.353 2.5722C119.569 0.172627 121.544 0.205988 124.088 3.34263C125.784 5.43583 127.369 7.61769 128.834 9.8791C131.385 13.8171 130.64 16.5739 126.769 19.2813C121.526 22.9456 116.376 26.7425 111.21 30.5164C110.146 31.2948 109.191 32.2229 108.019 33.2231C108.698 34.142 109.187 34.8528 109.726 35.5203C112.279 38.6832 111.905 41.008 108.512 43.3767C106.311 44.9132 104.166 46.527 102.058 48.0635C102.284 50.1762 102.451 52.0541 102.704 53.9207C102.766 54.4668 102.969 54.9872 103.295 55.4303C109.338 62.8903 112.282 71.6641 113.763 80.9421C115.273 90.3743 114.89 99.7369 111.377 108.787C106.389 121.637 96.7983 129.754 84.425 135.012C83.3184 135.482 82.1895 135.9 81.0482 136.351L85.3288 146.857C86.4695 146.957 88.1202 147.054 89.7604 147.251C94.8378 147.858 97.5793 152.463 95.5854 157.108C94.7413 159.077 92.8944 159.261 91.0416 159.315C85.4318 159.479 79.8228 159.781 74.2131 159.792C64.5591 159.81 54.905 159.656 45.2509 159.55C44.4634 159.537 43.6804 159.427 42.9201 159.221C40.4982 158.575 39.6929 157.098 40.3604 154.652C41.5845 150.145 44.832 147.443 49.5354 147.039C50.6465 146.943 51.7621 146.899 52.8661 146.832L55.6885 139.974C47.7842 138.862 39.9402 137.555 33.285 132.837C26.5568 128.068 22.2902 121.426 19.2855 113.497C16.4016 113.497 13.3908 113.586 10.3887 113.466C8.37267 113.408 6.36674 113.158 4.39837 112.719C3.50323 112.539 2.69803 112.055 2.12074 111.348C1.54344 110.641 1.22972 109.755 1.23333 108.842C1.16618 107.933 1.41372 107.028 1.93422 106.279C2.45472 105.53 3.21653 104.984 4.09231 104.73C5.57369 104.229 7.12314 103.957 8.68666 103.926C21.4879 103.863 34.2897 103.86 47.0917 103.917C48.3162 103.968 49.5274 104.192 50.6897 104.579C52.0871 104.995 53.2737 106.052 53.002 107.482C52.6551 108.724 51.9098 109.817 50.8807 110.593C50.0754 111.236 48.812 111.38 47.7212 111.577C45.8762 111.906 44.0018 112.096 41.9468 112.368ZM102.965 38.3235C96.7773 33.4312 94.5116 26.1339 89.7322 20.7027C80.1713 25.9075 38.7213 57.5496 35.7744 61.8834L48.073 78.2261L77.5788 57.7485C76.6238 52.016 75.6386 46.2172 81.7065 42.3822C87.1541 38.941 92.6673 37.7545 98.2665 42.1992L102.965 38.3235ZM96.7386 64.2442C101.286 72.6847 102.642 76.3024 102.889 86.3175C103.197 98.8023 99.4164 110.003 89.0463 117.659C77.1567 126.437 63.5737 128.226 49.3751 124.799C43.3703 123.351 38.9676 119.27 35.3604 114.335C34.8084 113.58 33.9165 112.497 33.2227 112.529C30.8481 112.636 28.3409 112.354 26.1264 113.544C27.6813 121.183 34.4423 129.211 41.9705 132.171C48.0713 134.486 54.5651 135.589 61.0883 135.418C69.4172 135.266 77.6024 133.219 85.0236 129.434C96.9138 123.5 105.112 114.439 107.7 101.117C109.735 90.6329 108.466 80.3389 104.785 70.352C103.608 67.1576 102.187 64.0513 100.782 60.6816L96.7386 64.2442ZM105.271 27.5989L122.058 13.7503L118.715 8.2166C112.432 12.6068 106.33 16.8705 100.043 21.2641C101.402 22.9922 102.486 24.4006 103.605 25.7809C104.088 26.3775 104.643 26.9189 105.27 27.5989H105.271ZM81.8397 49.2503C82.4449 51.7325 82.7061 53.9865 83.5462 56.0021C85.5283 60.7815 89.1054 61.5698 93.1543 58.3472C95.9195 56.1465 96.3454 53.5466 94.5267 49.9689C93.2009 47.3606 90.8657 46.3261 87.7664 47.1682C85.9451 47.6611 84.1999 48.4082 81.8371 49.2503H81.8397ZM60.8566 140.278L59.5984 145.555H76.9546C76.3258 142.864 75.8014 140.621 75.2842 138.409L60.8566 140.278ZM46.5806 154.355C60.8192 154.651 75.0611 154.808 89.3797 153.384C88.5265 152.625 87.5807 151.982 86.6231 151.97C84.1894 151.937 81.7511 152.32 79.3174 152.298C71.482 152.232 63.6479 152.056 55.8132 151.917C52.5624 151.861 49.345 151.947 46.5831 154.355H46.5806ZM35.4731 72.3289L21.309 81.7999L25.0047 86.1796C29.6135 82.8802 34.3983 80.3894 37.9392 76.0602L35.4731 72.3289Z" fill="black"/>
</g>
<defs>
<clipPath id="clip0">
<rect width="129.955" height="159.49" fill="white" transform="translate(0.736816 0.633545)"/>
</clipPath>
</defs>
</svg>

<svg xmlns="http://www.w3.org/2000/svg" width="131" height="161" fill="none" viewBox="0 0 131 161"><g clip-path="url(#a)"><path fill="#000" d="M41.947 112.368a14.44 14.44 0 0 0 9.799 7.816c12.657 3.191 24.657 1.462 34.954-6.822 8.56-6.887 11.37-16.726 11.398-27.323a45.9 45.9 0 0 0-4.667-19.772c-6.39.807-7.22.641-11.937-2.325l-29.065 20.1q-.556.382-1.136.721c-4.08 2.414-5.915 2.085-9.029-1.772-3.829 2.636-7.66 5.307-11.533 7.919a28.3 28.3 0 0 1-4.335 2.552c-2.485 1.09-4.413.512-5.767-1.8-1.756-2.996-3.285-6.124-4.942-9.18-.967-1.783-.63-3.198 1.022-4.364A5242 5242 0 0 0 32.045 67.24a1.1 1.1 0 0 0-.042-.375c-3.7-6.409-2.686-6.267 1.946-10.293a432 432 0 0 1 37.875-29.7c5.263-3.632 10.314-7.572 15.465-11.365 3.781-2.785 4.95-2.706 8.37.516.32.301.68.56 1.057.867 6.588-4.792 13.16-9.491 19.637-14.318 3.216-2.4 5.191-2.366 7.735.77a76 76 0 0 1 4.746 6.537c2.551 3.938 1.806 6.695-2.065 9.402-5.243 3.665-10.393 7.462-15.559 11.235-1.064.779-2.019 1.707-3.191 2.707.679.919 1.168 1.63 1.707 2.297 2.553 3.163 2.179 5.488-1.214 7.857-2.201 1.536-4.346 3.15-6.454 4.686.226 2.113.393 3.991.646 5.858a3.15 3.15 0 0 0 .591 1.51c6.043 7.46 8.987 16.233 10.468 25.511 1.51 9.432 1.127 18.795-2.386 27.845-4.988 12.85-14.579 20.967-26.952 26.225-1.107.47-2.236.888-3.377 1.339l4.28 10.506c1.141.1 2.792.197 4.432.394 5.078.607 7.82 5.212 5.825 9.857-.844 1.969-2.69 2.153-4.543 2.207-5.61.164-11.22.466-16.829.477-9.654.018-19.308-.136-28.962-.242a9.5 9.5 0 0 1-2.33-.329c-2.423-.646-3.228-2.123-2.56-4.569 1.224-4.507 4.471-7.209 9.174-7.613 1.112-.096 2.227-.14 3.331-.207l2.822-6.858c-7.904-1.112-15.748-2.419-22.403-7.137-6.728-4.769-10.995-11.411-14-19.34-2.883 0-5.894.089-8.896-.031a31.7 31.7 0 0 1-5.99-.747 3.94 3.94 0 0 1-3.166-3.877 3.98 3.98 0 0 1 2.86-4.112 15.3 15.3 0 0 1 4.594-.804q19.201-.094 38.405-.009a13 13 0 0 1 3.598.662c1.397.416 2.584 1.473 2.312 2.903a5.88 5.88 0 0 1-2.121 3.111c-.806.643-2.069.787-3.16.984-1.845.329-3.72.519-5.774.791m61.018-74.044c-6.188-4.893-8.453-12.19-13.233-17.621-9.56 5.204-51.01 36.847-53.958 41.18l12.299 16.343L77.579 57.75c-.955-5.733-1.94-11.532 4.128-15.367 5.447-3.441 10.96-4.627 16.56-.183zm-6.226 25.92c4.547 8.44 5.903 12.058 6.15 22.073.308 12.485-3.473 23.686-13.843 31.342-11.89 8.778-25.472 10.567-39.67 7.14-6.006-1.448-10.408-5.529-14.016-10.464-.552-.755-1.444-1.838-2.137-1.806-2.375.107-4.882-.175-7.097 1.015 1.555 7.639 8.316 15.667 15.845 18.627a50.2 50.2 0 0 0 19.117 3.247 54.9 54.9 0 0 0 23.936-5.984c11.89-5.934 20.088-14.995 22.676-28.317 2.035-10.484.766-20.778-2.915-30.765-1.177-3.194-2.598-6.3-4.003-9.67zM105.27 27.6l16.787-13.849-3.343-5.533-18.672 13.047c1.359 1.728 2.443 3.137 3.562 4.517.483.597 1.038 1.138 1.665 1.818zM81.84 49.25c.605 2.483.866 4.736 1.706 6.752 1.982 4.78 5.56 5.568 9.608 2.345 2.766-2.2 3.191-4.8 1.373-8.378-1.326-2.608-3.661-3.643-6.76-2.8-1.822.492-3.567 1.24-5.93 2.081zm-20.983 91.028-1.259 5.277h17.357c-.63-2.691-1.154-4.934-1.67-7.146zM46.58 154.355c14.238.296 28.48.453 42.799-.971-.853-.759-1.8-1.402-2.757-1.414-2.434-.033-4.872.35-7.306.328-7.835-.066-15.67-.242-23.504-.381-3.25-.056-6.468.03-9.23 2.438zM35.473 72.329l-14.164 9.47 3.696 4.38c4.608-3.299 9.393-5.79 12.934-10.119z"/></g><defs><clipPath id="a"><path fill="#fff" d="M.737.634h129.955v159.49H.737z"/></clipPath></defs></svg>
